X:1
T:Title
%%score { ( 1 4 ) | ( 2 3 ) }
L:1/8
M:4/4
K:Db
V:1 treble nm="Grand Piano"
V:4 treble 
V:2 bass 
V:3 bass 
V:1
 z4 z2[Q:1/4=100] FE | D2 DE F2 GB | A4 F2 [FA][Fd] | c2 Ac cBA=G | [CA]6 [GA][GA] | %5
 [Fd]2 [Fd]>[Fd] ed B2 | [FA]4 F2 DE | FA A2 [FA]G[A,DF][K:bass][G,CE] |[M:3/4] [F,D]6 | %9
[M:1/4][K:treble] A>A |[M:4/4] e2 d>d c2 Bc | [Fd]4 [FA]2 [DF][EG] | %12
 [FA]2 [GB][FA] [FA]2 [EG][DF] | [CE]6 [GA][GA] | [Fd]2 [Fd]>[Fd] [Af][Ae][Ae][Ad] | d4 B2 BB | %16
 AF d2 dc[GB][Gc] |[M:7/8] d2- [Gd-] [Gd-] [Fd]3 |] %18
V:2
 z4 z2 [D,A,D][D,G,C] | [D,F,]2 [F,A,][E,A,C] [D,A,D]2 [D,B,D][D,G,D] | %2
 [D,F,D]4 [D,A,D]2 [D,D][D,A,] | [E,A,E]2 [E,CE][E,A,E] ED[E,A,C][E,B,D] | [A,,A,]6 [A,C][A,C] | %5
 [D,D]2 [D,A,]>[D,A,] [G,B,G][G,B,G] [G,DG]2 | [D,D]4 [D,A,D]2 [F,A,][G,B,D] | %7
 [A,D][A,F] [A,F]2[K:bass] z EA,,A,, |[M:3/4] D,6 |[M:1/4] A,>A, | %10
[M:4/4][K:treble] [A,CG]2 [A,DF]>[A,DF] [A,EG]2 [A,DG][A,G] | [D,A,]4 [D,D]2 [D,A,][D,A,] | %12
 [D,D]2 [D,D][D,D] [D,A,]2 [C,A,][D,A,] | [A,,A,]6 [A,C][A,C] | %14
 [D,D]2 [D,A,]>[D,A,] [D,D][E,C][E,C][F,_C] | [G,B,G]4 [G,DG]2 [G,DG][G,DG] | %16
 [A,DF][A,D] [A,F]2[K:bass] [A,,A,]2 [A,,A,][A,,A,] |[M:7/8] A,2 B, B, A,3 |] %18
V:3
 x8 | x8 | x8 | z4 [E,=G,]2 z2 | x8 | x8 | x8 | z4[K:bass] [A,,A,]2 z2 |[M:3/4] x6 |[M:1/4] x2 | %10
[M:4/4][K:treble] x8 | x8 | x8 | x8 | x8 | x8 | x4[K:bass] x4 |[M:7/8] D,-D,-D,- D,- D,3 |] %18
V:4
 x8 | x8 | x8 | x8 | x8 | x8 | x8 | x7[K:bass] x |[M:3/4] x6 |[M:1/4][K:treble] x2 |[M:4/4] x8 | %11
 x8 | x8 | x8 | x8 | x8 | z4 G2 z2 |[M:7/8] F2 z z z z2 |] %18

